storage/app/icons/phosphoricons/thin/chat-dots-thin.svg

<svg xmlns="http://www.w3.org/2000/svg" fill="currentColor" viewBox="0 0 256 256"><path d="M136 128a8 8 0 1 1-8-8 8 8 0 0 1 8 8m-52-8a8 8 0 1 0 8 8 8 8 0 0 0-8-8m88 0a8 8 0 1 0 8 8 8 8 0 0 0-8-8m56-56v128a12 12 0 0 1-12 12H81.49l-33.73 29.13A11.9 11.9 0 0 1 40 236a12.2 12.2 0 0 1-5.1-1.14A11.89 11.89 0 0 1 28 224V64a12 12 0 0 1 12-12h176a12 12 0 0 1 12 12m-8 0a4 4 0 0 0-4-4H40a4 4 0 0 0-4 4v160a4 4 0 0 0 6.56 3.08L77.38 197a4 4 0 0 1 2.62-1h136a4 4 0 0 0 4-4Z"/></svg>

<svg xmlns="http://www.w3.org/2000/svg" viewBox="0 0 256 256" fill="currentColor"><path d="M136,128a8,8,0,1,1-8-8A8,8,0,0,1,136,128Zm-52-8a8,8,0,1,0,8,8A8,8,0,0,0,84,120Zm88,0a8,8,0,1,0,8,8A8,8,0,0,0,172,120Zm56-56V192a12,12,0,0,1-12,12H81.49L47.76,233.13l0,0A11.89,11.89,0,0,1,40,236a12.17,12.17,0,0,1-5.1-1.14A11.89,11.89,0,0,1,28,224V64A12,12,0,0,1,40,52H216A12,12,0,0,1,228,64Zm-8,0a4,4,0,0,0-4-4H40a4,4,0,0,0-4,4V224a4,4,0,0,0,6.56,3.08L77.38,197A4,4,0,0,1,80,196H216a4,4,0,0,0,4-4Z"/></svg>
